exported-svg/unlock.svg

<svg height="24" viewBox="0 0 24 24" width="24" xmlns="http://www.w3.org/2000/svg"><path d="m6.99999487 10.0053395v-3.499498c-.00283413-2.82564223 2.13592248-5.19370807 4.94725973-5.47768153 2.8113378-.28397352 5.3804567 1.60854998 5.9427457 4.37768203.0549509.27061967-.1198831.53454681-.3905028.58949776s-.5345468-.11988309-.5894978-.39050275c-.4600545-2.2656535-2.5620609-3.81408182-4.8622464-3.58173985-2.30018517.23234193-4.05007726 2.1698507-4.04775843 4.48224234v3.5h11.50000513c1.3807119 0 2.5 1.1192881 2.5 2.5v7c0 1.3807119-1.1192881 2.5-2.5 2.5h-14c-1.38071187 0-2.5-1.1192881-2.5-2.5v-7c0-1.3807119 1.11928813-2.5 2.5-2.5zm-1.49999487 1c-.82842712 0-1.5.6715729-1.5 1.5v7c0 .8284271.67157288 1.5 1.5 1.5h14c.8284271 0 1.5-.6715729 1.5-1.5v-7c0-.8284271-.6715729-1.5-1.5-1.5z"/></svg>

<?xml version="1.0" encoding="UTF-8"?>
<svg width="24px" height="24px" viewBox="0 0 24 24" version="1.1" xmlns="http://www.w3.org/2000/svg" xmlns:xlink="http://www.w3.org/1999/xlink">
    <!-- Generator: Sketch 55.2 (78181) - https://sketchapp.com -->
    <title>unlock</title>
    <desc>Created with Sketch.</desc>
    <g id="unlock" stroke="none" stroke-width="1" fill="none" fill-rule="evenodd">
        <path d="M6.99999487,10.0053395 L6.99999487,6.5058415 C6.99716074,3.68019927 9.13591735,1.31213343 11.9472546,1.02815997 C14.7585924,0.744186453 17.3277113,2.63670995 17.8900003,5.405842 C17.9449512,5.67646167 17.7701172,5.94038881 17.4994975,5.99533976 C17.2288778,6.05029071 16.9649507,5.87545667 16.9099997,5.60483701 C16.4499452,3.33918351 14.3479388,1.79075519 12.0477533,2.02309716 C9.74756813,2.25543909 7.99767604,4.19294786 7.99999487,6.5053395 L7.99999487,10.0053395 L19.5,10.0053395 C20.8807119,10.0053395 22,11.1246276 22,12.5053395 L22,19.5053395 C22,20.8860514 20.8807119,22.0053395 19.5,22.0053395 L5.5,22.0053395 C4.11928813,22.0053395 3,20.8860514 3,19.5053395 L3,12.5053395 C3,11.1246276 4.11928813,10.0053395 5.5,10.0053395 L6.99999487,10.0053395 Z M5.5,11.0053395 C4.67157288,11.0053395 4,11.6769124 4,12.5053395 L4,19.5053395 C4,20.3337666 4.67157288,21.0053395 5.5,21.0053395 L19.5,21.0053395 C20.3284271,21.0053395 21,20.3337666 21,19.5053395 L21,12.5053395 C21,11.6769124 20.3284271,11.0053395 19.5,11.0053395 L5.5,11.0053395 Z" id="Combined-Shape" fill="#000000" fill-rule="nonzero"></path>
    </g>
</svg>
